packages/core/src/svgs/tokens/mono/NEBO.svg

<svg width="24" height="24" viewBox="0 0 24 24" fill="none" xmlns="http://www.w3.org/2000/svg">
<path d="M21.9957 2V11.4957C21.9827 14.2759 21.0603 17.0175 19.0089 19.0754C18.0843 20.0025 16.9858 20.7379 15.7765 21.2399C14.5672 21.7417 13.2706 22 11.9614 22C10.652 22 9.35547 21.7417 8.1462 21.2399C6.93686 20.7379 5.83843 20.0025 4.91381 19.0754C3.60456 17.7591 2.68759 16.1044 2.26562 14.2966C1.84366 12.4887 1.93332 10.599 2.52461 8.83932C3.11589 7.07948 4.18544 5.51906 5.61344 4.33277C7.04144 3.14648 8.77152 2.38116 10.6099 2.12257C11.2034 2.04516 11.8485 2 12.3775 2H21.9957ZM21.3505 2.64508H12.3775C11.8291 2.61928 11.255 2.70314 10.7002 2.77409C8.98413 3.01652 7.36934 3.73158 6.03644 4.83933C4.70354 5.94706 3.70512 7.40377 3.15285 9.04659C2.60058 10.6894 2.51622 12.4533 2.90925 14.1412C3.30227 15.8293 4.15714 17.3745 5.37826 18.6044C6.24127 19.4705 7.26673 20.1576 8.39585 20.6264C9.52496 21.0952 10.7356 21.3367 11.9581 21.3367C13.1808 21.3367 14.3913 21.0952 15.5205 20.6264C16.6495 20.1576 17.675 19.4705 18.5379 18.6044C20.4926 16.6498 21.3376 14.1275 21.3505 11.4957V2.64508Z" fill="white"/>
<path d="M19.951 14.5789C19.518 15.8977 18.7628 17.0876 17.7539 18.0411C16.7451 18.9945 15.5145 19.6813 14.1734 20.0393C12.8322 20.3974 11.4231 20.4153 10.0732 20.0915C8.72349 19.7677 7.47576 19.1124 6.443 18.1849L8.87497 15.7464C11.7134 18.1978 16.474 17.6818 19.951 14.5789ZM9.41678 4.06405C6.30753 7.51524 5.79792 12.2567 8.22343 15.095L5.78502 17.5334C4.86208 16.5001 4.21127 15.253 3.89151 13.9048C3.57175 12.5568 3.59311 11.1503 3.95365 9.81251C4.31417 8.47477 5.00251 7.24799 5.9564 6.24317C6.91029 5.23835 8.09963 4.48718 9.41678 4.0576V4.06405ZM20.3639 8.30225C20.3704 8.2958 20.3639 8.3087 20.3639 8.30225V12.7598C20.1898 12.9727 19.9318 13.2758 19.7253 13.4694C16.5773 16.6238 12.1133 17.2303 9.53946 15.0756L12.294 12.3211C13.8098 13.2888 16.6417 12.3792 18.906 10.1149L19.106 9.91502C19.3253 9.68277 19.5382 9.43757 19.7253 9.19885L19.8285 9.06985H19.835L19.8543 9.03764L19.8929 8.99248L19.9124 8.96674C20.08 8.74729 20.2349 8.51513 20.3704 8.29581L20.3639 8.30225ZM15.629 3.65119C15.3838 3.80602 15.1388 3.98018 14.8936 4.16726L14.7775 4.26402C14.5323 4.45756 14.2936 4.66398 14.0615 4.8833L13.855 5.07682C11.5972 7.33462 10.6876 10.1601 11.6424 11.6824L8.89431 14.4241C6.76555 11.8502 7.37837 7.41203 10.5199 4.27048C10.7135 4.0705 11.2424 3.63829 11.2424 3.63829L15.629 3.65119ZM20.3897 3.63184V5.9864C20.275 6.38734 20.1216 6.77622 19.9318 7.14755C19.6831 7.63904 19.3848 8.10379 19.0415 8.53448C18.848 8.77965 18.648 9.0247 18.4287 9.25695L18.2286 9.45699C17.2738 10.4567 16.0824 11.2 14.7646 11.618C13.7712 11.8954 13.01 11.7792 12.6036 11.3728C12.2037 10.9729 12.0875 10.2117 12.3649 9.21179C12.7833 7.89419 13.5266 6.70296 14.5259 5.74772L14.7259 5.5542C15.3543 4.95593 16.0646 4.44986 16.8353 4.05115C17.1708 3.88343 17.5062 3.7415 17.8287 3.63829H17.8417L20.4026 3.63184H20.3897Z" fill="white"/>
</svg>

<svg xmlns="http://www.w3.org/2000/svg" width="24" height="24" fill="none" viewBox="0 0 24 24">
    <path fill="#fff" d="M21.996 2v9.496c-.013 2.78-.936 5.521-2.987 7.58a9.956 9.956 0 0 1-14.095 0A10 10 0 0 1 10.61 2.122 14 14 0 0 1 12.378 2zm-.645.645h-8.973c-.549-.026-1.123.058-1.678.13a9.34 9.34 0 0 0-5.322 15.83 9.287 9.287 0 0 0 13.16 0c1.955-1.955 2.8-4.478 2.813-7.11z"/>
    <path fill="#fff" d="M19.951 14.579a8.346 8.346 0 0 1-13.508 3.606l2.432-2.439c2.838 2.452 7.599 1.936 11.076-1.167M9.417 4.064c-3.11 3.451-3.62 8.193-1.194 11.031l-2.438 2.438A8.334 8.334 0 0 1 9.417 4.058zm10.947 4.238c.006-.006 0 .007 0 0v4.458a8 8 0 0 1-.639.71c-3.148 3.154-7.612 3.76-10.186 1.606l2.755-2.755c1.516.968 4.348.058 6.612-2.206l.2-.2c.22-.232.432-.477.62-.716l.102-.13h.007l.02-.031.038-.046.02-.025a9 9 0 0 0 .457-.671zm-4.735-4.65q-.367.233-.735.515l-.117.097q-.367.29-.715.62l-.207.193c-2.258 2.258-3.167 5.083-2.213 6.605l-2.748 2.742C6.766 11.85 7.378 7.412 10.52 4.27c.194-.2.722-.632.722-.632zm4.76-.02v2.354q-.172.603-.457 1.162a8 8 0 0 1-.89 1.386c-.194.246-.394.49-.613.723l-.2.2a8.2 8.2 0 0 1-3.464 2.161c-.994.277-1.755.161-2.161-.245-.4-.4-.516-1.161-.24-2.161a8.24 8.24 0 0 1 2.162-3.464l.2-.194a9.2 9.2 0 0 1 2.11-1.503c.335-.168.67-.31.993-.413h.013l2.56-.006z"/>
</svg>
